asset_auto_exported/icn_protect.svg

<?xml version="1.0" encoding="UTF-8"?>
<svg width="24px" height="24px" viewBox="0 0 24 24" version="1.1" xmlns="http://www.w3.org/2000/svg" xmlns:xlink="http://www.w3.org/1999/xlink">
    <title>icn_protect</title>
    <g id="Quique" stroke="none" stroke-width="1" fill="none" fill-rule="evenodd">
        <g id="Assets/Global/24/Protect" fill="#000000" fill-rule="nonzero">
            <g id="-----ICON-LAYERS-----">
                <path d="M12,0 C18.627,0 24,5.373 24,12 C24,18.627 18.627,24 12,24 C5.373,24 0,18.627 0,12 C0,5.373 5.373,0 12,0 Z M12,4.3751 C9.84459234,4.3751 8.0975,6.12145873 8.0975,8.2766 L8.0975,8.2766 L8.09748066,9.96209508 C6.9758008,10.2712554 6.1472,11.302231 6.1472,12.5195 L6.1472,12.5195 L6.1472,16.9395 L6.15243738,17.1067194 C6.23928889,18.4894274 7.39535551,19.5915 8.7992,19.5915 L8.7992,19.5915 L15.2012,19.5915 L15.3684194,19.5862626 C16.7511274,19.4994111 17.8532,18.3433445 17.8532,16.9395 L17.8532,16.9395 L17.8532,12.5195 L17.8470524,12.3383738 C17.7696072,11.200938 16.9685152,10.2557974 15.9029193,9.96209508 L15.9029193,9.96209508 L15.9025,8.2766 L15.8974224,8.07579393 C15.792908,6.01401674 14.0880512,4.3751 12,4.3751 Z M15.2012,11.0915 C15.9852017,11.0915 16.6292,11.7354983 16.6292,12.5195 L16.6292,12.5195 L16.6292,16.9395 L16.6226175,17.0762973 C16.5529511,17.7970379 15.939084,18.3675 15.2012,18.3675 L15.2012,18.3675 L8.7992,18.3675 L8.66240266,18.3609175 C7.94166213,18.2912511 7.3712,17.677384 7.3712,16.9395 L7.3712,16.9395 L7.3712,12.5195 L7.37778252,12.3827027 C7.44744894,11.6619621 8.06131602,11.0915 8.7992,11.0915 L8.7992,11.0915 Z M11.9999,16.4736 C11.7219,16.4736 11.4959,16.6996 11.4959,16.9766 C11.4959,17.2546 11.7219,17.4806 11.9999,17.4806 C12.2779,17.4806 12.5039,17.2546 12.5039,16.9766 C12.5039,16.6996 12.2779,16.4736 11.9999,16.4736 Z M12.058,14.5383 C11.1055004,14.5383 10.2657361,14.7822655 9.72426752,15.2657196 C9.55494785,15.4168979 9.54024135,15.6767128 9.69141962,15.8460325 C9.8425979,16.0153521 10.1024128,16.0300587 10.2717325,15.8788804 C10.6415299,15.5487041 11.290044,15.3603 12.058,15.3603 C12.7863503,15.3603 13.3553476,15.5287389 13.7356638,15.8523272 C13.908544,15.9994206 14.1679338,15.9785163 14.3150272,15.8056362 C14.4621206,15.632756 14.4412163,15.3733662 14.2683362,15.2262728 C13.7228279,14.7621324 12.9667078,14.5383 12.058,14.5383 Z M12.0674,12.5788 C10.6676183,12.5788 9.4181192,12.9878004 8.61730749,13.7537942 C8.45327572,13.9106942 8.44749424,14.1708607 8.6043942,14.3348925 C8.76129416,14.4989243 9.02146073,14.5047058 9.18549251,14.3478058 C9.81747403,13.7433017 10.8638193,13.4008 12.0674,13.4008 C13.2252176,13.4008 14.1801098,13.7130346 14.8210506,14.2991122 C14.9885653,14.4522881 15.2485364,14.4406641 15.4017122,14.2731494 C15.5548881,14.1056347 15.5432641,13.8456636 15.3757494,13.6924878 C14.5700743,12.9557767 13.4171844,12.5788 12.0674,12.5788 Z M12,5.6001 C13.478974,5.6001 14.6775,6.79812275 14.6775,8.2766 L14.6775,8.2766 L14.6772,9.8671 L9.3222,9.8671 L9.3225,8.2766 L9.32776667,8.1073033 C9.41510917,6.70773938 10.5779096,5.6001 12,5.6001 Z" id="Combined-Shape"></path>
            </g>
        </g>
    </g>
</svg>

<svg width="24" height="24" viewBox="0 0 24 24" xmlns="http://www.w3.org/2000/svg"><path d="M12 0c6.627 0 12 5.373 12 12s-5.373 12-12 12S0 18.627 0 12 5.373 0 12 0zm0 4.375a3.902 3.902 0 00-3.902 3.902v1.685a2.66 2.66 0 00-1.95 2.558v4.42l.004.167A2.659 2.659 0 008.8 19.592h6.402l.167-.006a2.659 2.659 0 002.485-2.646v-4.42l-.006-.182a2.662 2.662 0 00-1.944-2.376V8.277l-.006-.201A3.902 3.902 0 0012 4.376zm3.201 6.716c.784 0 1.428.644 1.428 1.429v4.42l-.006.136a1.435 1.435 0 01-1.422 1.291H8.8l-.137-.006a1.435 1.435 0 01-1.29-1.422v-4.42l.006-.136c.07-.721.683-1.291 1.421-1.291zM12 16.474a.504.504 0 100 1.008.504.504 0 000-1.008zm.058-1.936c-.952 0-1.792.244-2.334.728a.411.411 0 00.548.613c.37-.33 1.018-.519 1.786-.519.728 0 1.297.169 1.678.492a.411.411 0 00.532-.626c-.545-.464-1.301-.688-2.21-.688zm.01-1.96c-1.4 0-2.65.41-3.45 1.176a.411.411 0 10.567.594c.632-.605 1.679-.947 2.882-.947 1.158 0 2.113.312 2.754.898a.411.411 0 10.555-.607c-.806-.736-1.959-1.113-3.309-1.113zM12 5.6a2.677 2.677 0 012.678 2.677v1.59H9.321v-1.59l.006-.17A2.677 2.677 0 0112 5.6z" fill="#000" fill-rule="nonzero"/></svg>
